svgs/sharp-duotone-thin/infinity.svg

<svg xmlns="http://www.w3.org/2000/svg" viewBox="0 0 640 512"><!--! Font Awesome Pro 7.1.0 by @fontawesome - https://fontawesome.com License - https://fontawesome.com/license (Commercial License) Copyright 2025 Fonticons, Inc. --><path opacity=".4" fill="currentColor" d=""/><path fill="currentColor" d="M0 112l179.2 0 2.3 2.2 138.5 130.8 138.5-130.8 2.3-2.2 179.2 0 0 288-179.2 0-2.3-2.2-138.5-130.8-138.5 130.8-2.3 2.2-179.2 0 0-288zM308.3 256l-135.5-128-156.8 0 0 256 156.8 0 135.5-128zm23.3 0l135.5 128 156.8 0 0-256-156.8 0-135.5 128z"/></svg>

<svg xmlns="http://www.w3.org/2000/svg" viewBox="0 0 640 512"><!--! Font Awesome Pro 6.7.2 by @fontawesome - https://fontawesome.com License - https://fontawesome.com/license (Commercial License) Copyright 2024 Fonticons, Inc. --><defs><style>.fa-secondary{opacity:.4}</style></defs><path class="fa-secondary" d=""/><path class="fa-primary" d="M0 112l179.2 0L320 245 460.8 112 640 112l0 288-179.2 0L320 267 179.2 400 0 400 0 112zM308.3 256L172.8 128 16 128l0 256 156.8 0L308.3 256zm23.3 0L467.2 384 624 384l0-256-156.8 0L331.7 256z"/></svg>
